usr/share/icons/biglinux-icons-material/24/actions/office-chart-scatter.svg

<svg xmlns="http://www.w3.org/2000/svg" viewBox="0 0 24 24"><path d="M5 4v14H4v1h1v1h1v-1h14v-1H6V4H5zm13 0v1h1V4h-1zm1 1v1h1V5h-1zm0 1h-1v1h1V6zm-1 0V5h-1v1h1zM7 5v1h1V5H7zm2 0v1h1V5H9zM7 7v1h1V7H7zm2 0v1h1V7H9zm3 1v1h1V8h-1zm2 0v1h1V8h-1zm-2 2v1h1v-1h-1zm2 0v1h1v-1h-1zm-6 4v1h1v-1H8zm1 1v1h1v-1H9zm0 1H8v1h1v-1zm-1 0v-1H7v1h1z" style="fill:currentColor;fill-opacity:1;stroke:none;color:#dedede"/></svg>

<svg xmlns="http://www.w3.org/2000/svg" viewBox="0 0 24 24">
  <defs id="defs3051">
    <style type="text/css" id="current-color-scheme">
      .ColorScheme-Text {
        color:#dedede;
      }
      </style>
  </defs>
 <path style="fill:currentColor;fill-opacity:1;stroke:none" 
     d="M 5 4 L 5 10 L 5 11 L 5 16 L 5 17 L 5 18 L 4 18 L 4 19 L 5 19 L 5 20 L 6 20 L 6 19 L 19.292969 19 L 20 19 L 20 18.292969 L 20 18 L 19.707031 18 L 18.292969 18 L 6 18 L 6 16.431641 L 6 16.423828 L 6 16 L 6 13.423828 L 6 12.423828 L 6 12 L 6 11 L 6 10 L 6 7 L 6 6.9921875 L 6 6 L 6 4 L 5 4 z M 18 4 L 18 5 L 19 5 L 19 4 L 18 4 z M 19 5 L 19 6 L 20 6 L 20 5 L 19 5 z M 19 6 L 18 6 L 18 7 L 19 7 L 19 6 z M 18 6 L 18 5 L 17 5 L 17 6 L 18 6 z M 7 5 L 7 6 L 8 6 L 8 5 L 7 5 z M 9 5 L 9 6 L 10 6 L 10 5 L 9 5 z M 7 7 L 7 8 L 8 8 L 8 7 L 7 7 z M 9 7 L 9 8 L 10 8 L 10 7 L 9 7 z M 12 8 L 12 9 L 13 9 L 13 8 L 12 8 z M 14 8 L 14 9 L 15 9 L 15 8 L 14 8 z M 12 10 L 12 11 L 13 11 L 13 10 L 12 10 z M 14 10 L 14 11 L 15 11 L 15 10 L 14 10 z M 8 14 L 8 15 L 9 15 L 9 14 L 8 14 z M 9 15 L 9 16 L 10 16 L 10 15 L 9 15 z M 9 16 L 8 16 L 8 17 L 9 17 L 9 16 z M 8 16 L 8 15 L 7 15 L 7 16 L 8 16 z "
     class="ColorScheme-Text"
     />
</svg>
